IMB-X-Files/The-Ambassadors-Assets/660be8810126885cb7bfbd37_﹟37.svg

<svg fill="none" height="80" viewBox="0 0 80 80" width="80" xmlns="http://www.w3.org/2000/svg"><path d="m12.7736 70.2071c0 1.6863-1.3671 3.0534-3.05348 3.0534-1.68636 0-3.05343-1.3671-3.05343-3.0534 0-1.6864 1.36707-3.0535 3.05343-3.0535 1.68638 0 3.05348 1.3671 3.05348 3.0535zm0 0h60.5598m-63.61307-63.5406v60.5598m45.00317-41.9484-42.8223 42.8222" stroke="#ffcf54" stroke-linecap="round" stroke-linejoin="round" stroke-width="2"/></svg>

<svg width="80" height="80" viewBox="0 0 80 80" fill="none" xmlns="http://www.w3.org/2000/svg">
    <path
        d="M12.7736 70.2071C12.7736 71.8934 11.4065 73.2605 9.72012 73.2605C8.03376 73.2605 6.66669 71.8934 6.66669 70.2071C6.66669 68.5207 8.03376 67.1536 9.72012 67.1536C11.4065 67.1536 12.7736 68.5207 12.7736 70.2071ZM12.7736 70.2071H73.3334M9.72033 6.6665L9.72033 67.2263M54.7235 25.2779L11.9012 68.1001"
        stroke="#FFCF54" stroke-width="2" stroke-linecap="round" stroke-linejoin="round" />
</svg>
